src/dsmComponents/Icons/people-2-16px.svg

<?xml version="1.0" encoding="UTF-8"?>
<svg width="16px" height="16px" viewBox="0 0 16 16" version="1.1" xmlns="http://www.w3.org/2000/svg" xmlns:xlink="http://www.w3.org/1999/xlink">
    <!-- Generator: Sketch 59.1 (86144) - https://sketch.com -->
    <title>people-2-16px</title>
    <desc>Created with Sketch.</desc>
    <defs>
        <path d="M10,5.33333333 C11.1046667,5.33333333 12,6.22866667 12,7.33333333 L12,11.3333333 L10,11.3333333 L10,15.3333333 C10,15.7013333 9.70133333,16 9.33333333,16 L6.66666667,16 C6.29866667,16 6,15.7013333 6,15.3333333 L6,11.3333333 L4,11.3333333 L4,7.33333333 C4,6.22866667 4.89533333,5.33333333 6,5.33333333 L10,5.33333333 Z M3.35066667,5.33333333 C2.92733333,5.892 2.66666667,6.58 2.66666667,7.33333333 L2.66666667,7.33333333 L2.66666667,12.6666667 L4,12.6666667 L4,14 C4,14.368 3.70133333,14.6666667 3.33333333,14.6666667 L3.33333333,14.6666667 L2,14.6666667 C1.632,14.6666667 1.33333333,14.368 1.33333333,14 L1.33333333,14 L1.33333333,10.6666667 L0,10.6666667 L0,6.66666667 C0,5.93 0.596666667,5.33333333 1.33333333,5.33333333 L1.33333333,5.33333333 Z M14.6666667,5.33333333 C15.4033333,5.33333333 16,5.93 16,6.66666667 L16,10.6666667 L14.6666667,10.6666667 L14.6666667,14 C14.6666667,14.368 14.368,14.6666667 14,14.6666667 L12.6666667,14.6666667 C12.2986667,14.6666667 12,14.368 12,14 L12,12.6666667 L13.3333333,12.6666667 L13.3333333,7.33333333 C13.3333333,6.58 13.0726667,5.892 12.6493333,5.33333333 L14.6666667,5.33333333 Z M13.3333333,2 L13.4617871,2.00610082 C14.1381315,2.07068051 14.6666667,2.64 14.6666667,3.33333333 L14.6666667,3.33333333 L14.6605658,3.4617871 C14.5959862,4.13813149 14.0266667,4.66666667 13.3333333,4.66666667 L13.3333333,4.66666667 L13.2048796,4.66056585 C12.5285352,4.59598616 12,4.02666667 12,3.33333333 L12,3.33333333 L12.0061008,3.20487957 C12.0706805,2.52853518 12.64,2 13.3333333,2 L13.3333333,2 Z M2.66666667,2 C3.36,2 3.92931949,2.52853518 3.99389918,3.20487957 L4,3.33333333 C4,4.02666667 3.47146482,4.59598616 2.79512043,4.66056585 L2.66666667,4.66666667 C1.97333333,4.66666667 1.40401384,4.13813149 1.33943415,3.4617871 L1.33333333,3.33333333 C1.33333333,2.64 1.86186851,2.07068051 2.5382129,2.00610082 L2.66666667,2 Z M8,0 C9.05445455,0 9.91817355,0.815789256 9.99451484,1.85072558 L10,2 C10,3.05445455 9.18421074,3.91817355 8.14927442,3.99451484 L8,4 C6.94554545,4 6.08182645,3.18421074 6.00548516,2.14927442 L6,2 C6,0.945545455 6.81578926,0.0818264463 7.85072558,0.00548516153 L8,0 Z" id="path-1"></path>
    </defs>
    <g id="Final" stroke="none" stroke-width="1" fill="none" fill-rule="evenodd">
        <g id="All-Nucleo-Icons" transform="translate(-319.000000, -5276.000000)">
            <g id="Solo/Nucleo/16px/people-2" transform="translate(315.000000, 5272.000000)">
                <g id="multiple-11" transform="translate(4.000000, 4.000000)">
                    <g id="Colour/Default-Colour">
                        <mask id="mask-2" fill="white">
                            <use xlink:href="#path-1"></use>
                        </mask>
                        <g id="Mask" fill-rule="nonzero"></g>
                        <g id="colour/neutral/chia" mask="url(#mask-2)" fill="#737373">
                            <g transform="translate(-24.000000, -24.000000)" id="Colour">
                                <rect x="0" y="0" width="64" height="64"></rect>
                            </g>
                        </g>
                    </g>
                </g>
            </g>
        </g>
    </g>
</svg>

<svg width="16" height="16" xmlns="http://www.w3.org/2000/svg" xmlns:xlink="http://www.w3.org/1999/xlink"><defs><path d="M10 5.333a2 2 0 012 2v4h-2v4a.667.667 0 01-.667.667H6.667A.667.667 0 016 15.333v-4H4v-4a2 2 0 012-2h4zm-6.65 0a3.299 3.299 0 00-.683 2v5.334H4V14a.667.667 0 01-.667.667H2A.667.667 0 011.333 14v-3.333H0v-4c0-.737.597-1.334 1.333-1.334zm11.317 0c.736 0 1.333.597 1.333 1.334v4h-1.333V14a.667.667 0 01-.667.667h-1.333A.667.667 0 0112 14v-1.333h1.333V7.333c0-.753-.26-1.441-.684-2h2.018zM13.333 2l.129.006a1.333 1.333 0 011.205 1.327l-.006.129a1.333 1.333 0 01-1.328 1.205l-.128-.006A1.333 1.333 0 0112 3.333l.006-.128A1.333 1.333 0 0113.333 2zM2.667 2c.693 0 1.262.529 1.327 1.205L4 3.333c0 .694-.529 1.263-1.205 1.328l-.128.006a1.333 1.333 0 01-1.328-1.205l-.006-.129c0-.693.529-1.262 1.205-1.327L2.667 2zM8 0a2 2 0 011.995 1.85L10 2a2 2 0 01-1.85 1.995L8 4a2 2 0 01-1.995-1.85L6 2A2 2 0 017.85.005L8 0z" id="people-2-16px_svg__a"/></defs><use fill="#737373" xlink:href="#people-2-16px_svg__a" fill-rule="evenodd"/></svg>
